!!!!SEGMENT: pl-wtm--r-759-m--001-001_moniuszko-stanislaw-studia-berlinskie-iii-les-pontons-des-cadix-agitato.krn
!!!id: 18xx:2875
!!!COM: Moniuszko, Stanisław
!!!COM-rism:
!!!CDT:
!!!CNT:
!!!OTL: Studia berlińskie III – Les pontons des Cadix – Agitato
!!!PDT:
!!!SMS-siglum: PL-Wtm
!!!SMS-shelfmark: R 759/M
!!!NIFC-rismID: 1001097412
!!!URL-scan: http://repozytorium.nifc.pl/skany/pl-wtm-nut--r759m
!!!ONB-nifc: UWAGA: od skanu 0007. Części Kwintetu: 1. Agitato, 2. Andantino, 3. Allegro agitato
!!!SMS-variant:
!!!SMS-altvar:
!!!OMD: Agitato.
**kern	**dynam	**kern	**dynam	**kern	**text	**dynam	**kern	**text	**dynam	**kern	**text	**dynam	**kern	**text	**dynam	**kern	**text	**dynam	**kern	**dynam	**kern	**dynam	**kern	**dynam	**kern	**dynam	**kern	**dynam	**kern	**dynam	**kern	**dynam
*group4	*	*group4	*	*group3	*	*	*group3	*	*	*group3	*	*	*group3	*	*	*group3	*	*	*group2	*	*group2	*	*group2	*	*group1	*	*group1	*	*group1	*	*group1	*
*part14	*part14	*part13	*part13	*part12	*part12	*part12	*part11	*part11	*part11	*part10	*part10	*part10	*part9	*part9	*part9	*part8	*part8	*part8	*part7	*part7	*part6	*part6	*part5	*part5	*part4	*part4	*part3	*part3	*part2	*part2	*part1	*part1
*staff14	*	*staff13	*	*staff12	*staff12	*	*staff11	*staff11	*	*staff10	*staff10	*	*staff9	*staff9	*	*staff8	*staff8	*	*staff7	*	*staff6	*	*staff5	*	*staff4	*	*staff3	*	*staff2	*	*staff1	*
*I"CB.	*	*I"Vcello. A.	*	*I"Cockney.	*	*	*I"Gonzalo.	*	*	*I"Savenay.	*	*	*I"Hélèna.	*	*	*I"Olivia.	*	*	*I"Viola A	*	*I"V. 2do A	*	*I"V. 1mo A	*	*I"Vcello. B	*	*I"Viola. B.	*	*I"V. 2do B.	*	*I"V. 1mo B	*
*clefF4	*	*clefF4	*	*clefF4	*	*	*clefF4	*	*	*clefC4	*	*	*clefC3	*	*	*clefC1	*	*	*clefC3	*	*clefG2	*	*clefG2	*	*clefF4	*	*clefC3	*	*clefG2	*	*clefG2	*
*Trd0c0	*	*	*	*	*	*	*	*	*	*	*	*	*	*	*	*	*	*	*	*	*	*	*	*	*	*	*	*	*	*	*	*
*k[f#c#g#]	*	*k[f#c#g#]	*	*k[f#c#g#]	*	*	*k[f#c#g#]	*	*	*k[f#c#g#]	*	*	*k[f#c#g#]	*	*	*k[f#c#g#]	*	*	*k[f#c#g#]	*	*k[f#c#g#]	*	*k[f#c#g#]	*	*k[f#c#g#]	*	*k[f#c#g#]	*	*k[f#c#g#]	*	*k[f#c#g#]	*
*f#:	*	*f#:	*	*f#:	*	*	*f#:	*	*	*f#:	*	*	*f#:	*	*	*f#:	*	*	*f#:	*	*f#:	*	*f#:	*	*f#:	*	*f#:	*	*f#:	*	*f#:	*
*M4/4	*	*M4/4	*	*M4/4	*	*	*M4/4	*	*	*M4/4	*	*	*M4/4	*	*	*M4/4	*	*	*M4/4	*	*M4/4	*	*M4/4	*	*M4/4	*	*M4/4	*	*M4/4	*	*M4/4	*
*met(c)	*	*met(c)	*	*met(c)	*	*	*met(c)	*	*	*met(c)	*	*	*met(c)	*	*	*met(c)	*	*	*met(c)	*	*met(c)	*	*met(c)	*	*met(c)	*	*met(c)	*	*met(c)	*	*met(c)	*
=1	=1	=1	=1	=1	=1	=1	=1	=1	=1	=1	=1	=1	=1	=1	=1	=1	=1	=1	=1	=1	=1	=1	=1	=1	=1	=1	=1	=1	=1	=1	=1	=1
*	*	*	*	*	*	*	*	*	*	*	*	*	*	*	*	*	*	*	*	*	*tremolo	*	*tremolo	*	*	*	*	*	*tremolo	*	*tremolo	*
!	!	!	!	!	!	!	!	!	!	!	!	!	!	!	!	!	!	!	!	!	!	!	!	!	!	!	!	!	!	!	!LO:TX:t=P:problem:sporo skreśleń w partyturze	!
!	!	!	!	!	!	!	!	!	!	!LO:TX:t=P:problem:znaki[F# c# G#]	!	!	!LO:TX:t=P:problem:znaki[F# c# G#]	!	!	!LO:TX:t=P:problem:znaki[f# cc# g#]	!	!	!LO:TX:t=P:problem:znaki[F# c# G#]	!	!LO:TX:t=P:problem:znaki[f# cc# g#]	!LO:DY:rj	!LO:TX:t=P:problem:znaki[f# cc# g#]	!LO:DY:rj	!	!	!LO:TX:t=P:problem:znaki[F# c# G#]	!	!LO:TX:t=P:problem:znaki[f# cc# g#]	!LO:DY:rj	!LO:TX:t=P:problem:znaki[f# cc# g#]	!LO:DY:rj
1r	.	1r	.	1r	.	.	1r	.	.	1r	.	.	1r	.	.	1r	.	.	1r	.	16G#LL	pp	16g#LL	pp	1r	.	1r	.	16g#LL	pp	16gg#LL	pp
.	.	.	.	.	.	.	.	.	.	.	.	.	.	.	.	.	.	.	.	.	16G#	.	16g#	.	.	.	.	.	16g#	.	16gg#	.
.	.	.	.	.	.	.	.	.	.	.	.	.	.	.	.	.	.	.	.	.	16G#	.	16g#	.	.	.	.	.	16g#	.	16gg#	.
.	.	.	.	.	.	.	.	.	.	.	.	.	.	.	.	.	.	.	.	.	16G#	.	16g#	.	.	.	.	.	16g#	.	16gg#	.
.	.	.	.	.	.	.	.	.	.	.	.	.	.	.	.	.	.	.	.	.	16G#	.	16g#	.	.	.	.	.	16g#	.	16gg#	.
.	.	.	.	.	.	.	.	.	.	.	.	.	.	.	.	.	.	.	.	.	16G#	.	16g#	.	.	.	.	.	16g#	.	16gg#	.
.	.	.	.	.	.	.	.	.	.	.	.	.	.	.	.	.	.	.	.	.	16G#	.	16g#	.	.	.	.	.	16g#	.	16gg#	.
.	.	.	.	.	.	.	.	.	.	.	.	.	.	.	.	.	.	.	.	.	16G#	.	16g#	.	.	.	.	.	16g#	.	16gg#	.
.	.	.	.	.	.	.	.	.	.	.	.	.	.	.	.	.	.	.	.	.	16G#	.	16g#	.	.	.	.	.	16g#	.	16gg#	.
.	.	.	.	.	.	.	.	.	.	.	.	.	.	.	.	.	.	.	.	.	16G#	.	16g#	.	.	.	.	.	16g#	.	16gg#	.
.	.	.	.	.	.	.	.	.	.	.	.	.	.	.	.	.	.	.	.	.	16G#	.	16g#	.	.	.	.	.	16g#	.	16gg#	.
.	.	.	.	.	.	.	.	.	.	.	.	.	.	.	.	.	.	.	.	.	16G#	.	16g#	.	.	.	.	.	16g#	.	16gg#	.
.	.	.	.	.	.	.	.	.	.	.	.	.	.	.	.	.	.	.	.	.	16G#	.	16g#	.	.	.	.	.	16g#	.	16gg#	.
.	.	.	.	.	.	.	.	.	.	.	.	.	.	.	.	.	.	.	.	.	16G#	.	16g#	.	.	.	.	.	16g#	.	16gg#	.
.	.	.	.	.	.	.	.	.	.	.	.	.	.	.	.	.	.	.	.	.	16G#	.	16g#	.	.	.	.	.	16g#	.	16gg#	.
.	.	.	.	.	.	.	.	.	.	.	.	.	.	.	.	.	.	.	.	.	16G#JJ	.	16g#JJ	.	.	.	.	.	16g#JJ	.	16gg#JJ	.
=2	=2	=2	=2	=2	=2	=2	=2	=2	=2	=2	=2	=2	=2	=2	=2	=2	=2	=2	=2	=2	=2	=2	=2	=2	=2	=2	=2	=2	=2	=2	=2	=2
1r	.	2r	.	1r	.	.	1r	.	.	1r	.	.	1r	.	.	2r	.	.	2r	.	16G#LL	.	16g#LL	.	2r	.	2r	.	16g#LL	.	16gg#LL	.
.	.	.	.	.	.	.	.	.	.	.	.	.	.	.	.	.	.	.	.	.	16G#	.	16g#	.	.	.	.	.	16g#	.	16gg#	.
.	.	.	.	.	.	.	.	.	.	.	.	.	.	.	.	.	.	.	.	.	16G#	.	16g#	.	.	.	.	.	16g#	.	16gg#	.
.	.	.	.	.	.	.	.	.	.	.	.	.	.	.	.	.	.	.	.	.	16G#	.	16g#	.	.	.	.	.	16g#	.	16gg#	.
.	.	.	.	.	.	.	.	.	.	.	.	.	.	.	.	.	.	.	.	.	16G#	.	16g#	.	.	.	.	.	16g#	.	16gg#	.
.	.	.	.	.	.	.	.	.	.	.	.	.	.	.	.	.	.	.	.	.	16G#	.	16g#	.	.	.	.	.	16g#	.	16gg#	.
.	.	.	.	.	.	.	.	.	.	.	.	.	.	.	.	.	.	.	.	.	16G#	.	16g#	.	.	.	.	.	16g#	.	16gg#	.
.	.	.	.	.	.	.	.	.	.	.	.	.	.	.	.	.	.	.	.	.	16G#	.	16g#	.	.	.	.	.	16g#	.	16gg#	.
*	*	*2\right	*	*	*	*	*	*	*	*	*	*	*	*	*	*	*	*	*	*	*	*	*	*	*2\right	*	*	*	*	*	*	*
.	.	(2G#\	.	.	.	.	.	.	.	.	.	.	.	.	.	8r	.	.	(>2G#/	.	16G#	.	16g#	.	(2E\	.	(>2E/	.	16g#	.	16gg#	.
.	.	.	.	.	.	.	.	.	.	.	.	.	.	.	.	.	.	.	.	.	16G#	.	16g#	.	.	.	.	.	16g#	.	16gg#	.
.	.	.	.	.	.	.	.	.	.	.	.	.	.	.	.	8g#\	Danſ	.	.	.	16G#	.	16g#	.	.	.	.	.	16g#	.	16gg#	.
.	.	.	.	.	.	.	.	.	.	.	.	.	.	.	.	.	.	.	.	.	16G#	.	16g#	.	.	.	.	.	16g#	.	16gg#	.
.	.	.	.	.	.	.	.	.	.	.	.	.	.	.	.	8g#\	les	.	.	.	16G#	.	16g#	.	.	.	.	.	16g#	.	16gg#	.
.	.	.	.	.	.	.	.	.	.	.	.	.	.	.	.	.	.	.	.	.	16G#	.	16g#	.	.	.	.	.	16g#	.	16gg#	.
.	.	.	.	.	.	.	.	.	.	.	.	.	.	.	.	8g#\	ca-	.	.	.	16G#	.	16g#	.	.	.	.	.	16g#	.	16gg#	.
.	.	.	.	.	.	.	.	.	.	.	.	.	.	.	.	.	.	.	.	.	16G#JJ	.	16g#JJ	.	.	.	.	.	16g#JJ	.	16gg#JJ	.
=3	=3	=3	=3	=3	=3	=3	=3	=3	=3	=3	=3	=3	=3	=3	=3	=3	=3	=3	=3	=3	=3	=3	=3	=3	=3	=3	=3	=3	=3	=3	=3	=3
1r	.	2F#\	.	1r	.	.	4r	.	.	1r	.	.	2r	.	.	4g#\	-chots	.	2F#/	.	16G#LL	.	16g#LL	.	2D#X\	.	2D#X/	.	16g#LL	.	16gg#LL	.
.	.	.	.	.	.	.	.	.	.	.	.	.	.	.	.	.	.	.	.	.	16G#	.	16g#	.	.	.	.	.	16g#	.	16gg#	.
.	.	.	.	.	.	.	.	.	.	.	.	.	.	.	.	.	.	.	.	.	16G#	.	16g#	.	.	.	.	.	16g#	.	16gg#	.
.	.	.	.	.	.	.	.	.	.	.	.	.	.	.	.	.	.	.	.	.	16G#	.	16g#	.	.	.	.	.	16g#	.	16gg#	.
.	.	.	.	.	.	.	8G#\	Il	.	.	.	.	.	.	.	4r	.	.	.	.	16G#	.	16g#	.	.	.	.	.	16g#	.	16gg#	.
.	.	.	.	.	.	.	.	.	.	.	.	.	.	.	.	.	.	.	.	.	16G#	.	16g#	.	.	.	.	.	16g#	.	16gg#	.
.	.	.	.	.	.	.	8G#\	est	.	.	.	.	.	.	.	.	.	.	.	.	16G#	.	16g#	.	.	.	.	.	16g#	.	16gg#	.
.	.	.	.	.	.	.	.	.	.	.	.	.	.	.	.	.	.	.	.	.	16G#	.	16g#	.	.	.	.	.	16g#	.	16gg#	.
.	.	4E\	.	.	.	.	4c#\	pris.	.	.	.	.	8r	.	.	2r	.	.	2E/	.	16G#	.	16g#	.	2C#/	.	2C#/	.	16g#	.	16gg#	.
.	.	.	.	.	.	.	.	.	.	.	.	.	.	.	.	.	.	.	.	.	16G#	.	16g#	.	.	.	.	.	16g#	.	16gg#	.
.	.	.	.	.	.	.	.	.	.	.	.	.	8g#\	Danſ	.	.	.	.	.	.	16G#	.	16g#	.	.	.	.	.	16g#	.	16gg#	.
.	.	.	.	.	.	.	.	.	.	.	.	.	.	.	.	.	.	.	.	.	16G#	.	16g#	.	.	.	.	.	16g#	.	16gg#	.
.	.	4C#/	.	.	.	.	4r	.	.	.	.	.	8f#\	les	.	.	.	.	.	.	16G#	.	16g#	.	.	.	.	.	16g#	.	16gg#	.
.	.	.	.	.	.	.	.	.	.	.	.	.	.	.	.	.	.	.	.	.	16G#	.	16g#	.	.	.	.	.	16g#	.	16gg#	.
.	.	.	.	.	.	.	.	.	.	.	.	.	8e\	ca-	.	.	.	.	.	.	16G#	.	16g#	.	.	.	.	.	16g#	.	16gg#	.
.	.	.	.	.	.	.	.	.	.	.	.	.	.	.	.	.	.	.	.	.	16G#JJ	fp	16g#JJ	.	.	.	.	.	16g#JJ	.	16gg#JJ	.
=4	=4	=4	=4	=4	=4	=4	=4	=4	=4	=4	=4	=4	=4	=4	=4	=4	=4	=4	=4	=4	=4	=4	=4	=4	=4	=4	=4	=4	=4	=4	=4	=4
*	*	*	*	*	*	*	*	*	*	*	*	*	*	*	*	*	*	*	*	*	*	*	*	*	*	*	*	*	*	*	*2\right	*
!	!	!	!	!	!	!	!	!	!	!	!	!	!LO:SIC:v:s=4d#	!	!	!	!	!	!	!	!	!	!	!	!	!LO:DY:rj	!	!LO:DY:a:rj	!	!	!	!
2GG#/	fp	4BB#X/)	.	2r	.	.	1r	.	.	1r	.	.	4d\	-chots!	.	8r	.	.	4D#X/)	.	16G#/LL	.	16g#/LL	fp	2BB#X/)	fp	2D#X/)	fp	16g#/LL	fp >	16gg#\LL	fp >
.	.	.	.	.	.	.	.	.	.	.	.	.	.	.	.	.	.	.	.	sf	16G#/	.	16g#/	.	.	.	.	.	16g#/	.	16gg#\	.
.	.	.	.	.	.	.	.	.	.	.	.	.	.	.	.	8b#X\	danſ	.	.	.	16G#/	.	16g#/	.	.	.	.	.	16g#/	.	16gg#\	.
.	.	.	.	.	.	.	.	.	.	.	.	.	.	.	.	.	.	.	.	.	16G#/	.	16g#/	.	.	.	.	.	16g#/	.	16gg#\	.
!	!	!	!	!	!	!	!	!	!	!	!	!	!	!	!	!LO:SIC:v:l:s=les	!	!	!	!	!	!	!	!	!	!	!	!	!	!	!	!
.	.	4r	.	.	.	.	.	.	.	.	.	.	4r	.	.	8dd#X\	le	.	4r	.	16G#/	.	16g#/	.	.	.	.	.	16g#/	.	16gg#\	.
.	.	.	.	.	.	.	.	.	.	.	.	.	.	.	.	.	.	.	.	.	16G#/	.	16g#/	.	.	.	.	.	16g#/	.	16gg#\	.
.	.	.	.	.	.	.	.	.	.	.	.	.	.	.	.	8b#\	ca-	.	.	.	16G#/	.	16g#/	.	.	.	.	.	16g#/	.	16gg#\	.
.	.	.	.	.	.	.	.	.	.	.	.	.	.	.	.	.	.	.	.	.	16G#/JJ	.	16g#/JJ	.	.	.	.	.	16g#/JJ	.	16gg#\JJ	.
*	*	*tremolo	*	*	*	*	*	*	*	*	*	*	*	*	*	*	*	*	*tremolo	*	*	*	*	*	*	*	*	*	*Xtremolo	*	*Xtremolo	*
*	*	*	*	*	*	*	*	*	*	*	*	*	*	*	*	*	*	*	*2\right	*	*	*	*	*	*	*	*	*	*	*	*	*
2r	.	16G#\LL	pp	8r	.	.	.	.	.	.	.	.	2r	.	.	4g#\	-chots!	.	16d#X\LL	.	16B#X/LL	.	16f#/LL	.	2r	.	2r	.	4g#/	]	4gg#\	]
.	.	16G#\	.	.	.	.	.	.	.	.	.	.	.	.	.	.	.	.	16d#X\	.	16B#X/	.	16f#/	.	.	.	.	.	.	.	.	.
.	.	16G#\	.	8F#\	Eh!	.	.	.	.	.	.	.	.	.	.	.	.	.	16d#X\	.	16B#X/	.	16f#/	.	.	.	.	.	.	.	.	.
.	.	16G#\	.	.	.	.	.	.	.	.	.	.	.	.	.	.	.	.	16d#X\	.	16B#X/	.	16f#/	.	.	.	.	.	.	.	.	.
.	.	16G#\	.	8E\	quoi	.	.	.	.	.	.	.	.	.	.	4r	.	.	16d#X\	.	16B#X/	.	16f#/	.	.	.	.	.	4r	.	4r	.
.	.	16G#\	.	.	.	.	.	.	.	.	.	.	.	.	.	.	.	.	16d#X\	.	16B#X/	.	16f#/	.	.	.	.	.	.	.	.	.
!	!	!	!	!LO:SIC:v:s=8D#	!	!	!	!	!	!	!	!	!	!	!	!	!	!	!	!	!	!	!	!	!	!	!	!	!	!	!	!
.	.	16G#\	.	8D\	Mon-	.	.	.	.	.	.	.	.	.	.	.	.	.	16d#X\	.	16B#X/	.	16f#/	.	.	.	.	.	.	.	.	.
.	.	16G#\JJ	.	.	.	.	.	.	.	.	.	.	.	.	.	.	.	.	16d#X\JJ	.	16B#X/JJ	.	16f#/JJ	.	.	.	.	.	.	.	.	.
=5	=5	=5	=5	=5	=5	=5	=5	=5	=5	=5	=5	=5	=5	=5	=5	=5	=5	=5	=5	=5	=5	=5	=5	=5	=5	=5	=5	=5	=5	=5	=5	=5
*2\right	*	*	*	*	*	*	*	*	*	*	*	*	*	*	*	*	*	*	*	*	*	*	*	*	*	*	*	*	*	*	*	*
!	!LO:DY:t=fp.	!	!	!	!	!	!	!	!	!	!	!	!	!	!	!	!	!	!	!LO:DY:rj	!	!	!	!	!	!	!	!	!	!	!	!
2A\	fp	16A\LL	fp	4C#/	-ſieurs!	.	1r	.	.	8r	.	.	1r	.	.	1r	.	.	16c#\LL	fp	16c#/LL	fp	16e/LL	fp	1r	.	1r	.	1r	.	1r	.
.	.	16A\	.	.	.	.	.	.	.	.	.	.	.	.	.	.	.	.	16c#\	.	16c#/	.	16e/	.	.	.	.	.	.	.	.	.
.	.	16A\	.	.	.	.	.	.	.	8c#\	Je	.	.	.	.	.	.	.	16c#\	.	16c#/	.	16e/	.	.	.	.	.	.	.	.	.
.	.	16A\	.	.	.	.	.	.	.	.	.	.	.	.	.	.	.	.	16c#\	.	16c#/	.	16e/	.	.	.	.	.	.	.	.	.
.	.	16A\	.	4r	.	.	.	.	.	8c#\	n'ai	.	.	.	.	.	.	.	16c#\	.	16c#/	.	16e/	.	.	.	.	.	.	.	.	.
.	.	16A\	.	.	.	.	.	.	.	.	.	.	.	.	.	.	.	.	16c#\	.	16c#/	.	16e/	.	.	.	.	.	.	.	.	.
.	.	16A\	.	.	.	.	.	.	.	8c#\	plus	.	.	.	.	.	.	.	16c#\	.	16c#/	.	16e/	.	.	.	.	.	.	.	.	.
.	.	16A\JJ	.	.	.	.	.	.	.	.	.	.	.	.	.	.	.	.	16c#\JJ	.	16c#/JJ	.	16e/JJ	.	.	.	.	.	.	.	.	.
!	!	!	!	!	!	!	!	!	!	!	!	!	!	!	!	!	!	!	!	!LO:DY:rj	!	!	!	!	!	!	!	!	!	!	!	!
8A/L	fp	16A\LL	fp	2r	.	.	.	.	.	4.c#\	rien	.	.	.	.	.	.	.	16c#\LL	fp	16d#X/LL	fp	16f#/LL	fp	.	.	.	.	.	.	.	.
.	.	16A\	.	.	.	.	.	.	.	.	.	.	.	.	.	.	.	.	16c#\	.	16d#X/	.	16f#/	.	.	.	.	.	.	.	.	.
8A/	.	16A\	.	.	.	.	.	.	.	.	.	.	.	.	.	.	.	.	16c#\	.	16d#X/	.	16f#/	.	.	.	.	.	.	.	.	.
.	.	16A\	.	.	.	.	.	.	.	.	.	.	.	.	.	.	.	.	16c#\	.	16d#X/	.	16f#/	.	.	.	.	.	.	.	.	.
8A/	.	16A\	.	.	.	.	.	.	.	.	.	.	.	.	.	.	.	.	16c#\	.	16d#X/	.	16f#/	.	.	.	.	.	.	.	.	.
.	.	16A\	.	.	.	.	.	.	.	.	.	.	.	.	.	.	.	.	16c#\	.	16d#X/	.	16f#/	.	.	.	.	.	.	.	.	.
8A/J	.	16A\	.	.	.	.	.	.	.	8c#\	à	.	.	.	.	.	.	.	16c#\	.	16d#X/	.	16f#/	.	.	.	.	.	.	.	.	.
.	.	16A\JJ	.	.	.	.	.	.	.	.	.	.	.	.	.	.	.	.	16c#\JJ	.	16d#X/JJ	.	16f#/JJ	.	.	.	.	.	.	.	.	.
*	*	*Xtremolo	*	*	*	*	*	*	*	*	*	*	*	*	*	*	*	*	*Xtremolo	*	*Xtremolo	*	*Xtremolo	*	*	*	*	*	*	*	*	*
!!LO:PB:g=original
=6	=6	=6	=6	=6	=6	=6	=6	=6	=6	=6	=6	=6	=6	=6	=6	=6	=6	=6	=6	=6	=6	=6	=6	=6	=6	=6	=6	=6	=6	=6	=6	=6
4G#\|	.	4G#\|	.	1r	.	.	1r	.	.	4B#X\	per-	.	1r	.	.	1r	.	.	4B#X/|	.	4d#X/|	.	4g#/|	.	4r	.	4r	.	4r	.	4r	.
!	!LO:DY:a:rj	!	!LO:DY:rj	!	!	!	!	!	!	!	!	!	!	!	!	!	!	!	!LO:SIC:v:n=1:s=4d#	!LO:DY:rj	!	!LO:DY:rj	!	!LO:DY:rj	!	!LO:DY:rj	!LO:SIC:v:s=4D#	!LO:DY:rj	!	!	!	!LO:DY:rj
4GG#/	f	4GG#/	f	.	.	.	.	.	.	4G#/	-dre!	.	.	.	.	.	.	.	4d 4G#/	f	4b#X 4d#/	f	4gg# 4b#X 4d#X\	f	4GG#/	f	4E#X/	f	4b#X/	f	4gg#\	f
2ryy	.	2r	.	.	.	.	.	.	.	2r	.	.	.	.	.	.	.	.	2r	.	2r	.	2r	.	2r	.	2r	.	2r	.	2r	.
=7||	=7||	=7||	=7||	=7||	=7||	=7||	=7||	=7||	=7||	=7||	=7||	=7||	=7||	=7||	=7||	=7||	=7||	=7||	=7||	=7||	=7||	=7||	=7||	=7||	=7||	=7||	=7||	=7||	=7||	=7||	=7||	=7||
!LO:TX:a:t=piu lento	!	!	!	!	!	!	!	!	!	!	!	!	!	!	!	!	!	!	!	!	!	!	!	!	!	!	!	!	!	!	!LO:TX:a:t=piu lento	!
1r	.	1r	.	1r	.	.	1r	.	.	1r	.	.	1r	.	.	1r	.	.	(1g#	.	1r	.	1r	.	1r	.	(>1G#	.	1r	.	1r	.
=8	=8	=8	=8	=8	=8	=8	=8	=8	=8	=8	=8	=8	=8	=8	=8	=8	=8	=8	=8	=8	=8	=8	=8	=8	=8	=8	=8	=8	=8	=8	=8	=8
*	*	*	*	*2\right	*	*	*2\right	*	*	*2\right	*	*	*2\right	*	*	*2\right	*	*	*	*2\right	*	*	*	*	*	*	*	*	*	*	*	*
!	!	!	!	!	!	!LO:DY:rj	!	!	!LO:DY:rj	!	!	!LO:DY:rj	!	!	!LO:DY:rj	!	!	!LO:DY:rj	!	!	!	!	!	!	!	!	!	!	!	!	!	!
1ryy	.	1ryy	.	2E\	Pau-	f	2B\	Pour	f	2B\	De	f	2e\	De	f	2g#\	De	f	4e'\)	.	1ryy	.	1ryy	.	1ryy	.	4E'/)	.	1ryy	.	1ryy	.
.	.	.	.	.	.	.	.	.	.	.	.	.	.	.	.	.	.	.	4ryy	.	.	.	.	.	.	.	4ryy	.	.	.	.	.
.	.	.	.	4.E\	-vre	.	4.B\	cet-	.	4.B\	m'en	.	4.e\	le	.	4.g#\	le	.	2ryy	.	.	.	.	.	.	.	2ryy	.	.	.	.	.
.	.	.	.	8E\	col-	.	8B\	-te	.	8B\	ti-	.	8e\	sau-	.	8g#\	sau-	.	.	.	.	.	.	.	.	.	.	.	.	.	.	.
=9	=9	=9	=9	=9	=9	=9	=9	=9	=9	=9	=9	=9	=9	=9	=9	=9	=9	=9	=9	=9	=9	=9	=9	=9	=9	=9	=9	=9	=9	=9	=9	=9
1ryy	.	1ryy	.	2.D#X\	-lè-	.	2BB/	fois...	.	2B\	-rer...	.	2f#\	-ver...	.	2a\	-ver...	.	1ryy	.	1ryy	.	1ryy	.	1ryy	.	1ryy	.	1ryy	.	1ryy	.
.	.	.	.	.	.	.	2r	.	.	2r	.	.	2r	.	.	2r	.	.	.	.	.	.	.	.	.	.	.	.	.	.	.	.
.	.	.	.	4Dn\	-gue!	.	.	.	.	.	.	.	.	.	.	.	.	.	.	.	.	.	.	.	.	.	.	.	.	.	.	.
.	.	.	.	.	.	p	.	.	p	.	.	p	.	.	p	.	.	p	.	.	.	.	.	.	.	.	.	.	.	.	.	.
=10	=10	=10	=10	=10	=10	=10	=10	=10	=10	=10	=10	=10	=10	=10	=10	=10	=10	=10	=10	=10	=10	=10	=10	=10	=10	=10	=10	=10	=10	=10	=10	=10
1ryy	.	1ryy	.	2Dn\	pau-	.	2dn\	pour	.	2cn\	de	.	2f#\	de	.	2a\	de	.	1ryy	.	1ryy	.	1ryy	.	1ryy	.	1ryy	.	1ryy	.	1ryy	.
.	.	.	.	4.D\	-vre	.	4.d\	cet-	.	4.c\	m'en	.	4.f#\	le	.	4.a\	le	.	.	.	.	.	.	.	.	.	.	.	.	.	.	.
.	.	.	.	8D\	col-	.	8d\	-te	.	8c\	ti-	.	8f#\	sau-	.	8a\	sau-	.	.	.	.	.	.	.	.	.	.	.	.	.	.	.
=11	=11	=11	=11	=11	=11	=11	=11	=11	=11	=11	=11	=11	=11	=11	=11	=11	=11	=11	=11	=11	=11	=11	=11	=11	=11	=11	=11	=11	=11	=11	=11	=11
1ryy	.	1ryy	.	2.GGn/	-lè-	.	2Dn\	fois...	.	2B\	-rer...	.	2gn\	-ver...	.	2b\	-ver...	.	1ryy	.	1ryy	.	1ryy	.	1ryy	.	1ryy	.	1ryy	.	1ryy	.
.	.	.	.	.	.	.	2r	.	.	2r	.	.	2r	.	.	2r	.	.	.	.	.	.	.	.	.	.	.	.	.	.	.	.
.	.	.	.	4GG/	-gue!	.	.	.	.	.	.	.	.	.	.	.	.	.	.	.	.	.	.	.	.	.	.	.	.	.	.	.
!!LO:PB:g=original
=12	=12	=12	=12	=12	=12	=12	=12	=12	=12	=12	=12	=12	=12	=12	=12	=12	=12	=12	=12	=12	=12	=12	=12	=12	=12	=12	=12	=12	=12	=12	=12	=12
!	!	!	!	!	!	!LO:DY:b:rj	!	!	!LO:DY:b:rj	!	!	!LO:DY:b:rj	!	!	!LO:DY:b:rj	!	!	!LO:DY:a	!	!	!	!	!	!	!	!	!	!	!	!	!	!
1ryy	.	1ryy	.	2Gn\	pau-	f	2B\	pour	f	2dn\	de	f	2gn\	de	f	2b\	de	f	1ryy	.	1ryy	.	1ryy	.	1ryy	.	1ryy	.	1ryy	.	1ryy	.
.	.	.	.	4.G\	-vre	.	4.B\	cet-	.	4.d\	m'en	.	4.g\	le	.	4.b\	le	.	.	.	.	.	.	.	.	.	.	.	.	.	.	.
.	.	.	.	8G\	col-	.	8B\	-te	.	8d\	ti-	.	8g\	sau-	.	8b\	sau-	.	.	.	.	.	.	.	.	.	.	.	.	.	.	.
=13	=13	=13	=13	=13	=13	=13	=13	=13	=13	=13	=13	=13	=13	=13	=13	=13	=13	=13	=13	=13	=13	=13	=13	=13	=13	=13	=13	=13	=13	=13	=13	=13
!	!	!	!	!	!	!	!	!	!	!LO:N:vis=2.	!	!	!	!	!	!	!	!	!	!	!	!	!	!	!	!	!	!	!	!	!	!
1ryy	.	1ryy	.	2F#\	-lè-	.	2.A\	fois	.	2d#X\	-rer	.	2a\	-ver	.	2ccn\	-ver	.	1ryy	.	1ryy	.	1ryy	.	1ryy	.	1ryy	.	1ryy	.	1ryy	.
.	.	.	.	8F#\	-gue!	.	.	.	.	4r	.	.	2r	.	.	2r	.	.	.	.	.	.	.	.	.	.	.	.	.	.	.	.
.	.	.	.	8r	.	.	.	.	.	.	.	.	.	.	.	.	.	.	.	.	.	.	.	.	.	.	.	.	.	.	.	.
!	!	!	!	!LO:TX:a:t=ritar&colon;	!	!	!LO:TX:a:t=ritar	!	!	!LO:TX:a:t=ritar&colon;	!	!	!LO:TX:a:t=ritar.	!	!	!	!	!	!	!	!	!	!	!	!	!	!	!	!	!	!	!
.	.	.	.	4F#\	ah!	.	4A\	mous	.	4d#\	in	.	.	.	.	.	.	.	.	.	.	.	.	.	.	.	.	.	.	.	.	.
!	!	!	!	!	!	!LO:DY:b	!	!	!LO:DY:b	!	!	!LO:DY:b	!	!	!LO:DY:b	!	!	!	!	!	!	!	!	!	!	!	!	!	!	!	!	!
.	.	.	.	.	.	pp	.	.	pp	.	.	pp	.	.	pp	.	.	pp	.	.	.	.	.	.	.	.	.	.	.	.	.	.
=14	=14	=14	=14	=14	=14	=14	=14	=14	=14	=14	=14	=14	=14	=14	=1pp	=14	=14	=14	=14	=14	=14	=14	=14	=14	=14	=14	=14	=14	=14	=14	=14	=14
!	!	!	!	!	!	!	!	!	!	!	!	!	!	!	!	!LO:TX:a:t=ritar.	!	!	!	!	!	!	!	!	!	!	!	!	!	!	!	!
1ryy	.	1ryy	.	4BB/	je	.	4B\	le	.	4f#\	n'est	.	4a\	est	.	4b\	est	.	1ryy	.	1ryy	.	1ryy	.	1ryy	.	1ryy	.	1ryy	.	1ryy	.
.	.	.	.	4BB/	com-	.	4d#X\	te-	.	4f#\	au-	.	4a\	il	.	4b\	il	.	.	.	.	.	.	.	.	.	.	.	.	.	.	.
.	.	.	.	4.BB/	-prends	.	2d#\	-nons	.	4.f#\	-cun	.	4a\	quel-	.	4ccn\	quel-	.	.	.	.	.	.	.	.	.	.	.	.	.	.	.
.	.	.	.	.	.	.	.	.	.	.	.	.	8a\	-que	.	8b\	-que	.	.	.	.	.	.	.	.	.	.	.	.	.	.	.
.	.	.	.	8BB/	très	.	.	.	.	8f#\	moy-	.	8a\	moy-	.	8b\	moy-	.	.	.	.	.	.	.	.	.	.	.	.	.	.	.
=15	=15	=15	=15	=15	=15	=15	=15	=15	=15	=15	=15	=15	=15	=15	=15	=15	=15	=15	=15	=15	=15	=15	=15	=15	=15	=15	=15	=15	=15	=15	=15	=15
1r;	.	1r;	.	2E;\	bien.	.	2e;<\	bien.	.	2e;\	-ens?	.	2g#X;\	-en?	.	2b;\	-en?	.	1r;	.	1r;	.	1r;	.	1r;	.	1r;	.	1r;	.	1r;	.
.	.	.	.	2r	.	.	2r	.	.	2r	.	.	2r	.	.	2r	.	.	.	.	.	.	.	.	.	.	.	.	.	.	.	.
==	==	==	==	==	==	==	==	==	==	==	==	==	==	==	==	==	==	==	==	==	==	==	==	==	==	==	==	==	==	==	==	==
*-	*-	*-	*-	*-	*-	*-	*-	*-	*-	*-	*-	*-	*-	*-	*-	*-	*-	*-	*-	*-	*-	*-	*-	*-	*-	*-	*-	*-	*-	*-	*-	*-
!!!system-decoration: [{(g1)}{(g2)}{(g3)}{(g4)}]
!!!RDF**kern: > = above
!!!RDF**kern: < = belolw
!!!RDF**kern: | = vertical stroke
!!!ENC: Andrzej Borzym
!!!END: 2021-08-04
!!!ENC: Marta Lawrence
!!!END: 2021-09-06
